assets/images/illustrations/stat-circle.svg

<svg xmlns="http://www.w3.org/2000/svg" width="397" height="531" fill="none" viewBox="0 0 397 531"><g filter="url(#a)"><path fill="#38BCE2" d="M89.602 404.389c-4.125 1.583-8.767-.474-10.21-4.65a236.174 236.174 0 0 1 369.47-262.568c3.469 2.736 3.886 7.796 1.034 11.17l-50.649 59.935c-2.852 3.374-7.887 3.778-11.417 1.121a141.71 141.71 0 0 0-167.297-2.285 141.7 141.7 0 0 0-52.86 158.743c1.348 4.208-.689 8.83-4.814 10.413z"/></g><g filter="url(#b)"><path fill="#9BBB5A" d="M463.962 161.276c3.125-3.124 8.201-3.133 11.217.095a236.175 236.175 0 0 1-16.375 338.404 236.17 236.17 0 0 1-178.41 57.969 236.17 236.17 0 0 1-159.378-84.135c-2.825-3.398-2.18-8.433 1.312-11.141l62.002-48.094c3.491-2.708 8.5-2.057 11.401 1.276a141.71 141.71 0 0 0 150.678 41.738 141.7 141.7 0 0 0 97.845-130.318 141.7 141.7 0 0 0-35.94-98.837c-2.943-3.296-2.962-8.346.162-11.471z"/></g><g filter="url(#c)"><path fill="#FF5441" d="M111.257 446.891c-3.705 2.406-8.672 1.36-10.952-2.425a236 236 0 0 1-6.713-11.915c-2.057-3.91-.379-8.701 3.599-10.624l70.647-34.152c3.978-1.923 8.742-.245 10.886 3.619q.439.79.887 1.574c2.194 3.835 1.162 8.779-2.544 11.186z"/></g><defs><filter id="a" width="465.334" height="398.477" x="30.4473" y="54.4458" color-interpolation-filters="sRGB" filterUnits="userSpaceOnUse"><feFlood flood-opacity="0" result="BackgroundImageFix"/><feColorMatrix in="SourceAlpha" result="hardAlpha" values="0 0 0 0 0 0 0 0 0 0 0 0 0 0 0 0 0 0 127 0"/><feOffset dx="4" dy="8"/><feGaussianBlur stdDeviation="20"/><feComposite in2="hardAlpha" operator="out"/><feColorMatrix values="0 0 0 0 0.219608 0 0 0 0 0.737255 0 0 0 0 0.886275 0 0 0 0.4 0"/><feBlend in2="BackgroundImageFix" result="effect1_dropShadow_3794_2446"/><feColorMatrix in="SourceAlpha" result="hardAlpha" values="0 0 0 0 0 0 0 0 0 0 0 0 0 0 0 0 0 0 127 0"/><feOffset dx="2" dy="4"/><feGaussianBlur stdDeviation="4"/><feComposite in2="hardAlpha" operator="out"/><feColorMatrix values="0 0 0 0 0.219608 0 0 0 0 0.737255 0 0 0 0 0.886275 0 0 0 0.2 0"/><feBlend in2="effect1_dropShadow_3794_2446" result="effect2_dropShadow_3794_2446"/><feBlend in="SourceGraphic" in2="effect2_dropShadow_3794_2446" result="shape"/></filter><filter id="b" width="499.547" height="479.851" x="83.2461" y="126.941" color-interpolation-filters="sRGB" filterUnits="userSpaceOnUse"><feFlood flood-opacity="0" result="BackgroundImageFix"/><feColorMatrix in="SourceAlpha" result="hardAlpha" values="0 0 0 0 0 0 0 0 0 0 0 0 0 0 0 0 0 0 127 0"/><feOffset dx="4" dy="8"/><feGaussianBlur stdDeviation="20"/><feComposite in2="hardAlpha" operator="out"/><feColorMatrix values="0 0 0 0 0.607843 0 0 0 0 0.733333 0 0 0 0 0.352941 0 0 0 0.4 0"/><feBlend in2="BackgroundImageFix" result="effect1_dropShadow_3794_2446"/><feColorMatrix in="SourceAlpha" result="hardAlpha" values="0 0 0 0 0 0 0 0 0 0 0 0 0 0 0 0 0 0 127 0"/><feOffset dx="2" dy="4"/><feGaussianBlur stdDeviation="4"/><feComposite in2="hardAlpha" operator="out"/><feColorMatrix values="0 0 0 0 0.607843 0 0 0 0 0.733333 0 0 0 0 0.352941 0 0 0 0.2 0"/><feBlend in2="effect1_dropShadow_3794_2446" result="effect2_dropShadow_3794_2446"/><feBlend in="SourceGraphic" in2="effect2_dropShadow_3794_2446" result="shape"/></filter><filter id="c" width="168.043" height="141.206" x="56.709" y="354.976" color-interpolation-filters="sRGB" filterUnits="userSpaceOnUse"><feFlood flood-opacity="0" result="BackgroundImageFix"/><feColorMatrix in="SourceAlpha" result="hardAlpha" values="0 0 0 0 0 0 0 0 0 0 0 0 0 0 0 0 0 0 127 0"/><feOffset dx="4" dy="8"/><feGaussianBlur stdDeviation="20"/><feComposite in2="hardAlpha" operator="out"/><feColorMatrix values="0 0 0 0 1 0 0 0 0 0.329412 0 0 0 0 0.254902 0 0 0 0.4 0"/><feBlend in2="BackgroundImageFix" result="effect1_dropShadow_3794_2446"/><feColorMatrix in="SourceAlpha" result="hardAlpha" values="0 0 0 0 0 0 0 0 0 0 0 0 0 0 0 0 0 0 127 0"/><feOffset dx="2" dy="4"/><feGaussianBlur stdDeviation="4"/><feComposite in2="hardAlpha" operator="out"/><feColorMatrix values="0 0 0 0 1 0 0 0 0 0.329412 0 0 0 0 0.254902 0 0 0 0.2 0"/><feBlend in2="effect1_dropShadow_3794_2446" result="effect2_dropShadow_3794_2446"/><feBlend in="SourceGraphic" in2="effect2_dropShadow_3794_2446" result="shape"/></filter></defs></svg>

<svg width="397" height="531" viewBox="0 0 397 531" fill="none" xmlns="http://www.w3.org/2000/svg">
<g filter="url(#filter0_dd_3794_2446)">
<path d="M89.6016 404.389C85.4768 405.972 80.8354 403.915 79.3926 399.739C63.1931 352.852 62.1492 301.977 76.5264 254.357C91.6755 204.181 123.085 160.47 165.809 130.108C208.532 99.7456 260.142 84.4581 312.51 86.653C362.209 88.736 409.91 106.453 448.862 137.171C452.331 139.907 452.748 144.967 449.896 148.341L399.247 208.276C396.395 211.65 391.36 212.054 387.83 209.397C364.939 192.169 337.303 182.244 308.554 181.039C277.133 179.723 246.167 188.895 220.533 207.112C194.899 225.329 176.053 251.556 166.964 281.662C158.647 309.209 158.931 338.571 167.673 365.855C169.021 370.063 166.984 374.685 162.859 376.268L89.6016 404.389Z" fill="#38BCE2"/>
</g>
<g filter="url(#filter1_dd_3794_2446)">
<path d="M463.962 161.276C467.087 158.152 472.163 158.143 475.179 161.371C495.353 182.96 511.313 208.161 522.208 235.678C534.085 265.676 539.69 297.79 538.676 330.037C537.663 362.285 530.053 393.984 516.316 423.177C502.578 452.37 483.005 478.439 458.804 499.775C434.602 521.112 406.286 537.263 375.601 547.233C344.917 557.203 312.515 560.78 280.394 557.744C248.273 554.708 217.115 545.123 188.842 529.579C162.908 515.322 139.906 496.329 121.016 473.609C118.191 470.211 118.836 465.176 122.328 462.468L184.33 414.374C187.821 411.666 192.83 412.317 195.731 415.65C206.659 428.207 219.729 438.756 234.353 446.795C251.317 456.121 270.012 461.872 289.284 463.694C308.557 465.516 327.998 463.37 346.409 457.388C364.819 451.405 381.809 441.715 396.33 428.913C410.851 416.111 422.595 400.47 430.837 382.954C439.08 365.438 443.646 346.419 444.254 327.07C444.862 307.721 441.499 288.453 434.373 270.454C428.229 254.938 419.402 240.649 408.314 228.233C405.371 224.937 405.352 219.887 408.476 216.762L463.962 161.276Z" fill="#9BBB5A"/>
</g>
<g filter="url(#filter2_dd_3794_2446)">
<path d="M111.257 446.891C107.552 449.297 102.585 448.251 100.305 444.466C97.9529 440.56 95.714 436.587 93.5916 432.551C91.535 428.641 93.2131 423.85 97.191 421.927L167.838 387.775C171.816 385.852 176.58 387.53 178.724 391.394C179.017 391.92 179.312 392.445 179.611 392.968C181.805 396.803 180.773 401.747 177.067 404.154L111.257 446.891Z" fill="#FF5441"/>
</g>
<defs>
<filter id="filter0_dd_3794_2446" x="30.4473" y="54.4458" width="465.334" height="398.477" filterUnits="userSpaceOnUse" color-interpolation-filters="sRGB">
<feFlood flood-opacity="0" result="BackgroundImageFix"/>
<feColorMatrix in="SourceAlpha" type="matrix" values="0 0 0 0 0 0 0 0 0 0 0 0 0 0 0 0 0 0 127 0" result="hardAlpha"/>
<feOffset dx="4" dy="8"/>
<feGaussianBlur stdDeviation="20"/>
<feComposite in2="hardAlpha" operator="out"/>
<feColorMatrix type="matrix" values="0 0 0 0 0.219608 0 0 0 0 0.737255 0 0 0 0 0.886275 0 0 0 0.4 0"/>
<feBlend mode="normal" in2="BackgroundImageFix" result="effect1_dropShadow_3794_2446"/>
<feColorMatrix in="SourceAlpha" type="matrix" values="0 0 0 0 0 0 0 0 0 0 0 0 0 0 0 0 0 0 127 0" result="hardAlpha"/>
<feOffset dx="2" dy="4"/>
<feGaussianBlur stdDeviation="4"/>
<feComposite in2="hardAlpha" operator="out"/>
<feColorMatrix type="matrix" values="0 0 0 0 0.219608 0 0 0 0 0.737255 0 0 0 0 0.886275 0 0 0 0.2 0"/>
<feBlend mode="normal" in2="effect1_dropShadow_3794_2446" result="effect2_dropShadow_3794_2446"/>
<feBlend mode="normal" in="SourceGraphic" in2="effect2_dropShadow_3794_2446" result="shape"/>
</filter>
<filter id="filter1_dd_3794_2446" x="83.2461" y="126.941" width="499.547" height="479.851" filterUnits="userSpaceOnUse" color-interpolation-filters="sRGB">
<feFlood flood-opacity="0" result="BackgroundImageFix"/>
<feColorMatrix in="SourceAlpha" type="matrix" values="0 0 0 0 0 0 0 0 0 0 0 0 0 0 0 0 0 0 127 0" result="hardAlpha"/>
<feOffset dx="4" dy="8"/>
<feGaussianBlur stdDeviation="20"/>
<feComposite in2="hardAlpha" operator="out"/>
<feColorMatrix type="matrix" values="0 0 0 0 0.607843 0 0 0 0 0.733333 0 0 0 0 0.352941 0 0 0 0.4 0"/>
<feBlend mode="normal" in2="BackgroundImageFix" result="effect1_dropShadow_3794_2446"/>
<feColorMatrix in="SourceAlpha" type="matrix" values="0 0 0 0 0 0 0 0 0 0 0 0 0 0 0 0 0 0 127 0" result="hardAlpha"/>
<feOffset dx="2" dy="4"/>
<feGaussianBlur stdDeviation="4"/>
<feComposite in2="hardAlpha" operator="out"/>
<feColorMatrix type="matrix" values="0 0 0 0 0.607843 0 0 0 0 0.733333 0 0 0 0 0.352941 0 0 0 0.2 0"/>
<feBlend mode="normal" in2="effect1_dropShadow_3794_2446" result="effect2_dropShadow_3794_2446"/>
<feBlend mode="normal" in="SourceGraphic" in2="effect2_dropShadow_3794_2446" result="shape"/>
</filter>
<filter id="filter2_dd_3794_2446" x="56.709" y="354.976" width="168.043" height="141.206" filterUnits="userSpaceOnUse" color-interpolation-filters="sRGB">
<feFlood flood-opacity="0" result="BackgroundImageFix"/>
<feColorMatrix in="SourceAlpha" type="matrix" values="0 0 0 0 0 0 0 0 0 0 0 0 0 0 0 0 0 0 127 0" result="hardAlpha"/>
<feOffset dx="4" dy="8"/>
<feGaussianBlur stdDeviation="20"/>
<feComposite in2="hardAlpha" operator="out"/>
<feColorMatrix type="matrix" values="0 0 0 0 1 0 0 0 0 0.329412 0 0 0 0 0.254902 0 0 0 0.4 0"/>
<feBlend mode="normal" in2="BackgroundImageFix" result="effect1_dropShadow_3794_2446"/>
<feColorMatrix in="SourceAlpha" type="matrix" values="0 0 0 0 0 0 0 0 0 0 0 0 0 0 0 0 0 0 127 0" result="hardAlpha"/>
<feOffset dx="2" dy="4"/>
<feGaussianBlur stdDeviation="4"/>
<feComposite in2="hardAlpha" operator="out"/>
<feColorMatrix type="matrix" values="0 0 0 0 1 0 0 0 0 0.329412 0 0 0 0 0.254902 0 0 0 0.2 0"/>
<feBlend mode="normal" in2="effect1_dropShadow_3794_2446" result="effect2_dropShadow_3794_2446"/>
<feBlend mode="normal" in="SourceGraphic" in2="effect2_dropShadow_3794_2446" result="shape"/>
</filter>
</defs>
</svg>
